src/icons/baseTopLeft.svg

<svg fill="none" height="217" viewBox="0 0 209 217" width="209" xmlns="http://www.w3.org/2000/svg"><g fill="#cb8bb3"><path d="m178.099 177.484-4.865-4.865c37.842-37.842 37.842-99.4171 0-137.2587-37.843-37.84257-99.417-37.84257-137.2592 0-37.84232 37.8426-37.84232 99.4167 0 137.2597l-4.8649 4.864c-40.52512-40.525-40.52552-106.4641-.0007-146.9893 40.5248-40.5251 106.4648-40.5248 146.9898.0004 40.525 40.5248 40.525 106.4639 0 146.9889z"/><path d="m167.304 166.69-4.865-4.866c31.891-31.891 31.891-83.779 0-115.6692-31.891-31.8907-83.7792-31.891-115.6698 0-31.8899 31.8902-31.8899 83.7802.0004 115.6702l-4.8652 4.865c-34.57315-34.573-34.57285-90.828-.0004-125.4005 34.5728-34.57308 90.828-34.57277 125.401.0004 34.573 34.5721 34.573 90.8271-.001 125.4001z"/><path d="m155.265 154.65-4.865-4.865c25.252-25.252 25.252-66.339 0-91.591-25.252-25.2525-66.3388-25.2529-91.5918 0-25.2516 25.251-25.2516 66.339.001 91.591l-4.865 4.865c-27.9354-27.935-27.935-73.388-.001-101.3221 27.935-27.9346 73.3868-27.9342 101.3218.0007 27.934 27.9344 27.934 73.3874 0 101.3214z"/></g><path d="m185.187 183.302c-44.522 44.522-116.966 44.523-161.4892 0l40.8672-40.867c21.988 21.988 57.766 21.989 79.754 0z" fill="#8bb5cb"/></svg>

<svg width="209" height="217" viewBox="0 0 209 217" fill="none" xmlns="http://www.w3.org/2000/svg">
<path d="M178.099 177.484L173.234 172.619C211.076 134.777 211.076 73.2019 173.234 35.3603C135.391 -2.48227 73.817 -2.48227 35.9748 35.3603C-1.86752 73.2029 -1.86752 134.777 35.9748 172.62L31.1099 177.484C-9.41522 136.959 -9.41562 71.0199 31.1092 30.4947C71.634 -10.0304 137.574 -10.0301 178.099 30.4951C218.624 71.0199 218.624 136.959 178.099 177.484Z" fill="#CB8BB3"/>
<path d="M167.304 166.69L162.439 161.824C194.33 129.933 194.33 78.045 162.439 46.1548C130.548 14.2641 78.6598 14.2638 46.7692 46.1548C14.8793 78.045 14.8793 129.935 46.7696 161.825L41.9044 166.69C7.33125 132.117 7.33155 75.862 41.904 41.2895C76.4768 6.71642 132.732 6.71673 167.305 41.2899C201.878 75.862 201.878 132.117 167.304 166.69Z" fill="#CB8BB3"/>
<path d="M155.265 154.65L150.4 149.785C175.652 124.533 175.652 83.446 150.4 58.194C125.148 32.9415 84.0612 32.9411 58.8082 58.194C33.5566 83.445 33.5566 124.533 58.8092 149.785L53.9442 154.65C26.0088 126.715 26.0092 81.262 53.9432 53.3279C81.8782 25.3933 127.33 25.3937 155.265 53.3286C183.199 81.263 183.199 126.716 155.265 154.65Z" fill="#CB8BB3"/>
<path d="M185.187 183.302C140.665 227.824 68.221 227.825 23.6978 183.302L64.565 142.435C86.553 164.423 122.331 164.424 144.319 142.435L185.187 183.302Z" fill="#8BB5CB"/>
</svg>
